X:63
T:Bugle Call Rag
C:Arr. by John Baldry 
N:From "Bluegrass and Old-Time Mandolin"
R:bluegrass
L:1/8
Q:1/4=245
M:4/4
K:G
"Bobby Osborn style break""G"D2 | G2 GB G2 G2 | B2 Bd B2 GB | d2 B2 G2 D2 | G2 e2 =f2 ^f2 | 
|"C"ga gf ef ga | ge cd ef ga | "G"ge dB AG FA | BG E2 D2 D2 |
 "D"DE FD EF DE | FD EF D2 B,2 | "G"G,A, B,C DE DE | "G7"=FG FG FG FD |
 | "C"CB, CD EG AB | cd e=f ga ge | "G"de gf ge dc | BA GB AG FG |
 | "D"DF Ad ^cd e=f | fe dB AG FA | "G"GD =FE DG, (3B,^A,=A, | G,6 D2 | 
 |G2 GB G2 G2 | B2 Bd B2 GB | d2 B2 G2 D2 | G2 g2 f2 =f2 |
 |"C"eg gg gg gg | bg eg eg gg | "G"ge dg eg eg | =fe dc BA FG |
 | "D"AD DD DD DD | DD DD DD DD | "G"{^C}DG,2G, G,G, G,G, | G,8 | 
 |"C"CC CC CC CC | ^A,=A, G,_B, A,G, B,A, | "G"G,A, ^A,B, DE FG | Ac BA GB AG | 
|"D"DF AB ^cd e=f | fe dc BA FA | "G"GD =FE DB, ^A,=A, | G,6 D2 |
| G2 GB G2 G2 | B2 Bd B2 GB | d2 B2 G2 D2 | G2 G,2 A,2 B,2 | 
|"Monroe style break""C"CC CD EG GA | ^A=A G_B AG Gg | "G"gd dB BG GB |
| BG G^A BG GE | "D"DD DD FA AB | dA cA BA FD | "G"GG GG GG GG |
 GD ^A,=A, G,G, A,B, | "C"CC CD EG GA | ^A=A G_B =BG G_B | "G"d^c =c^A BG G=A | 
|^AG G2 AA GG | "D"ED FA Bd dA | DF AB d2 dA | "G"DF AB dA cB |
| GG GG GD DE | G6 D2 | G2 GB G2 G2 | B2 Bd B2 GB | 
|d2 B2 G2 D2 | G2 [^A2G2] [A2G2] [A2G2] | "C"G[c2G2C2][cGC] [cGC][cGC] [cGC][cGC] | [c2G2] [cGC][cGC] [cGC][cGC] [cGC][cGC] |
| "G"G,2 B,D GB de | gd dB BG GD | "D"DD DE FA Ad | df fa ad' d'a |
| "G"[DG,]B, B,^A, [DG,]B Bg | gd dB BG GD | "C"CC CE EG GA | ^A=A _B=B AG GB | 
"G"gd dB BG A^A | BG GG G2 GE | "D"DD DD FA Ad | df fa ad' d'a | 
|"G"[D2G,2] [D^A,][DB,] [DG,][DG,] [D2B,2] | [D6G,6] DD | GD GB G2 GG | BG Bd B2 GB | d2 BG D2 DD | G8 |

